web/ui/src/components/theme/button/svgs/preserve.svg

<svg height="16" viewBox="0 0 16 16" width="16" xmlns="http://www.w3.org/2000/svg"><g fill="none"><path d="m0 0h15.98439v16h-15.98439z" fill="#000" opacity="0"/><path d="m13.1048684 1c1.0420599 0 1.8951316.853125 1.8951316 1.896125v10.208625c-.0033618 1.0453219-.8498749 1.891888-1.8951316 1.89525h-10.2088619c-1.04559828-.0028818-1.89264222-.8495878-1.8960065-1.89525v-10.208625c.00087495-1.043.85482157-1.896125 1.89688144-1.896125zm-.104297 1h-1.0005714v3.95682796c0 .57362724-.4721157 1.04317204-1.0496705 1.04317204h-5.90144586c-.57676797 0-1.04888364-.4695448-1.04888364-1.04317204v-3.95682796h-1.00057143c-.55152135.00188375-.99801762.44876295-.99942857 1.00028571v10.00028569c.00188375.5515214.44876295.9980177 1.00028571.9994286h10.00028569c.5511881-.0018812.9975474-.4482405.9994286-.9994286v-10.00028569c-.0014109-.55152276-.4479072-.99840196-.9994286-1.00028571zm-2.0005714 0h-6l.00073457 3.764955c0 .12916888.1101861.235045.24461313.235045h5.5093046c.1351616 0 .2453477-.10587612.2453477-.235045zm-.8169444.583c.2747317 0 .4995122.13557289.4995122.29994001v1.40011998c0 .14434613-.1659785.2657281-.3968761.29381819l-.1026361.00612182c-.27541807-.00065758-.49841707-.13456086-.49951219-.29994001v-1.40011998c0-.16436712.22478049-.29994001.49951219-.29994001z" fill="#595959"/></g></svg>

<?xml version="1.0" encoding="UTF-8"?>
<svg width="16px" height="16px" viewBox="0 0 16 16" version="1.1" xmlns="http://www.w3.org/2000/svg" xmlns:xlink="http://www.w3.org/1999/xlink">
    <title>preserve</title>
    <g id="页面-1" stroke="none" stroke-width="1" fill="none" fill-rule="evenodd">
        <g id="系统设计规范" transform="translate(-685.000000, -5253.000000)" fill-rule="nonzero">
            <g id="preserve" transform="translate(685.000000, 5253.000000)">
                <rect id="矩形" fill="#000000" opacity="0" x="0" y="0" width="15.9843902" height="16"></rect>
                <path d="M13.1048684,1 C14.1469283,1 15,1.853125 15,2.896125 L15,13.10475 C14.9966382,14.1500719 14.1501251,14.996638 13.1048684,15 L2.8960065,15 C1.85040822,14.9971182 1.00336428,14.1504122 1,13.10475 L1,2.896125 C1.00087495,1.853125 1.85482157,1 2.89688144,1 L13.1048684,1 Z M13.0005714,2 L12,2 L12,5.95682796 C12,6.5304552 11.5278843,7 10.9503295,7 L5.04888364,7 C4.47211567,7 4,6.5304552 4,5.95682796 L4,2 L2.99942857,2 C2.44790722,2.00188375 2.00141095,2.44876295 2,3.00028571 L2,13.0005714 C2.00188375,13.5520928 2.44876295,13.9985891 3.00028571,14 L13.0005714,14 C13.5517595,13.9981188 13.9981188,13.5517595 14,13.0005714 L14,3.00028571 C13.9985891,2.44876295 13.5520928,2.00188375 13.0005714,2 Z M11,2 L5,2 L5.00073457,5.764955 C5.00073457,5.89412388 5.11092067,6 5.2453477,6 L10.7546523,6 C10.8898139,6 11,5.89412388 11,5.764955 L11,2 Z M10.1830556,2.583 C10.4577873,2.583 10.6825678,2.71857289 10.6825678,2.88294001 L10.6825678,4.28305999 C10.6825678,4.42740612 10.5165893,4.54878809 10.2856917,4.57687818 L10.1830556,4.583 C9.90763753,4.58234242 9.68463853,4.44843914 9.68354341,4.28305999 L9.68354341,2.88294001 C9.68354341,2.71857289 9.9083239,2.583 10.1830556,2.583 Z" id="形状" fill="#595959"></path>
            </g>
        </g>
    </g>
</svg>
